apps/portfolio/src/portfolio/static/assets/icons/hh.svg

<svg width="400" height="400" viewBox="0 0 400 400" fill="none" xmlns="http://www.w3.org/2000/svg">
<g clip-path="url(#clip0_90_2172)">
<path d="M200 400C310.457 400 400 310.457 400 200C400 89.5431 310.457 0 200 0C89.5431 0 0 89.5431 0 200C0 310.457 89.5431 400 200 400Z" fill="#FF0002"/>
<path d="M299.58 170.886C293.38 164.626 284.58 161.226 273.84 161.226C260.48 161.226 250.24 166.526 244.34 176.486V127.126H213.38V262.406H244.34V214.846C244.34 203.766 246.66 196.666 250.14 192.486C253.52 188.326 258.26 186.706 263.4 186.706C267.94 186.706 271.52 188.126 274.04 190.686C276.56 193.346 278 197.406 278 203.086V262.286H308.96V197.126C308.98 186.046 305.68 177.046 299.58 170.886Z" fill="white"/>
<path d="M160.34 161.226C146.98 161.226 136.74 166.526 130.84 176.486V127.126H99.8799V262.406H130.84V214.846C130.84 203.766 133.16 196.666 136.64 192.486C140.02 188.326 144.76 186.706 149.9 186.706C154.44 186.706 158.02 188.126 160.54 190.686C163.06 193.346 164.5 197.406 164.5 203.086V262.286H195.46V197.126C195.46 186.046 192.18 177.046 185.98 170.786C179.88 164.546 171.08 161.226 160.34 161.226Z" fill="white"/>
</g>
<defs>
<clipPath id="clip0_90_2172">
<rect width="400" height="400" fill="white"/>
</clipPath>
</defs>
</svg>

<svg
  width="400"
  height="400"
  viewBox="0 0 400 400"
  fill="none"
  xmlns="http://www.w3.org/2000/svg"
>
  <g
    clip-path="url(#clip0_90_2172)"
  >
    <mask
      x="0"
      y="0"
      width="400"
      height="400"
      id="hh-cutout-mask"
      maskUnits="userSpaceOnUse"
    >
      <rect
        width="400"
        height="400"
        fill="#000"
      />
      <path
        d="m200 400
          c110.46 0 200-89.543 200-200 0-110.46-89.543-200-200-200-110.46 0-200 89.543-200 200 0 110.46 89.543 200 200 200 z"
        fill="#fff"
      />
      <path
        d="m299.58 170.89 c-6.2-6.26-15-9.66-25.74-9.66-13.36 0-23.6 5.3-29.5 15.26 v-49.36 h-30.96 v135.28 h30.96 v-47.56
          c0-11.08 2.32-18.18 5.8-22.36 3.38-4.16 8.12-5.78 13.26-5.78 4.54 0 8.12 1.42 10.64 3.98 2.52 2.66 3.96 6.72 3.96 12.4
          v59.2 h30.96 v-65.16 c0.02-11.08-3.28-20.08-9.38-26.24 z"
        fill="#000"
      />
      <path
        d="m160.34 161.23 c-13.36 0-23.6 5.3-29.5 15.26 v-49.36 h-30.96 v135.28 h30.96 v-47.56
          c0-11.08 2.32-18.18 5.8-22.36 3.38-4.16 8.12-5.78 13.26-5.78 4.54 0 8.12 1.42 10.64 3.98 2.52 2.66 3.96 6.72 3.96 12.4
          v59.2 h30.96 v-65.16 c0-11.08-3.28-20.08-9.48-26.34-6.1-6.24-14.9-9.56-25.64-9.56 z"
        fill="#000"
      />
    </mask>
    <path
      d="m200 400
        c110.46 0 200-89.543 200-200 0-110.46-89.543-200-200-200-110.46 0-200 89.543-200 200 0 110.46 89.543 200 200 200 z"
      fill="#fff"
      mask="url(#hh-cutout-mask)"
    />
  </g>
  <defs
  >
    <clipPath
      id="clip0_90_2172"
    >
      <rect
        width="400"
        height="400"
        fill="#fff"
      />
    </clipPath>
  </defs>
</svg>
